images/linkedin.svg

<svg fill="none" height="41" viewBox="0 0 40 41" width="40" xmlns="http://www.w3.org/2000/svg"><path d="m12.4038 33.6147h.5v-.5-17.2779-.5h-.5-5.37074-.5v.5 17.2779.5h.5zm.6765-22.5833h.0002l-.0003-.0116c-.0203-.8741-.3374-1.6735-.9252-2.25596-.5899-.58448-1.4192-.91778-2.40129-.91778-.98047 0-1.82502.33209-2.42733.91311-.60239.58109-.93462 1.38493-.93462 2.27223 0 1.7603 1.31912 3.1854 3.29126 3.1854 1.01528 0 1.86988-.3406 2.47318-.9279.6022-.5863.9241-1.3898.9241-2.2575zm20.0279 22.5833h.5v-.5-10.2113c0-2.627-.6846-4.6241-1.8949-5.9699-1.2153-1.3514-2.9064-1.9853-4.7884-1.9853-2.4031 0-4.0686 1.0671-5.0588 2.1237l-.1324-1.2863-.0462-.4488h-.4512-4.664-.5232l.0237.5227c.0706 1.5517.1408 3.3451.1408 5.4892v11.766.5h.5 5.3706.5v-.5-9.964c0-.4921.0385-.9008.141-1.1568l.0012-.003c.3442-.8762 1.0851-1.6968 2.2907-1.6968.8188 0 1.3358.3077 1.6725.8146.3588.5401.548 1.3615.548 2.4307v9.5753.5h.5zm-29.02657-32.38423h31.83677c1.978 0 3.5816 1.60357 3.5816 3.58163v31.8367c0 1.9781-1.6036 3.5817-3.5816 3.5817h-31.83677c-1.97806 0-3.58163-1.6036-3.58163-3.5817v-31.8367c0-1.97806 1.60357-3.58163 3.58163-3.58163z" fill="#eceded" stroke="#eceded"/></svg>

<svg width="40" height="41" viewBox="0 0 40 41" fill="none" xmlns="http://www.w3.org/2000/svg">
<path d="M12.4038 33.6147H12.9038V33.1147V15.8368V15.3368H12.4038H7.03306H6.53306V15.8368V33.1147V33.6147H7.03306H12.4038ZM13.0803 11.0314H13.0805L13.0802 11.0198C13.0599 10.1457 12.7428 9.3463 12.155 8.76384C11.5651 8.17936 10.7358 7.84606 9.75371 7.84606C8.77324 7.84606 7.92869 8.17815 7.32638 8.75917C6.72399 9.34026 6.39176 10.1441 6.39176 11.0314C6.39176 12.7917 7.71088 14.2168 9.68302 14.2168C10.6983 14.2168 11.5529 13.8762 12.1562 13.2889C12.7584 12.7026 13.0803 11.8991 13.0803 11.0314ZM33.1082 33.6147H33.6082V33.1147V22.9034C33.6082 20.2764 32.9236 18.2793 31.7133 16.9335C30.498 15.5821 28.8069 14.9482 26.9249 14.9482C24.5218 14.9482 22.8563 16.0153 21.8661 17.0719L21.7337 15.7856L21.6875 15.3368H21.2363H16.5723H16.0491L16.0728 15.8595C16.1434 17.4112 16.2136 19.2046 16.2136 21.3487V33.1147V33.6147H16.7136H22.0842H22.5842V33.1147V23.1507C22.5842 22.6586 22.6227 22.2499 22.7252 21.9939L22.7264 21.9909C23.0706 21.1147 23.8115 20.2941 25.0171 20.2941C25.8359 20.2941 26.3529 20.6018 26.6896 21.1087C27.0484 21.6488 27.2376 22.4702 27.2376 23.5394V33.1147V33.6147H27.7376H33.1082ZM4.08163 1.23047H35.9184C37.8964 1.23047 39.5 2.83404 39.5 4.8121V36.6488C39.5 38.6269 37.8964 40.2305 35.9184 40.2305H4.08163C2.10357 40.2305 0.5 38.6269 0.5 36.6488V4.8121C0.5 2.83404 2.10357 1.23047 4.08163 1.23047Z" fill="#ECEDED" stroke="#ECEDED"/>
</svg>
